!!!COM: Felix Mendelssohn
!!!CNT: Deutsch
!!!TXO: Deutsch
!!!OTL: Neue Liebe
!!!LYR: Heine
!!!OPS: Op. 19
!!!ONM: No. 4
!!!ENC: Daniel Alt & Leigh VanHandel
!!!YOR: Sa2mmtliche Lieder fu2r eine Singstimme
!!!YOR: Neu revidirt von Dr. L. Benda, Ausgabe fu2r mittlere Stimme
!!!YOR: Braunschweig. Henry Litolff's Verlag. Boston and New York: Arthur P. Schmidt.
!!!ODT: 1831/
**kern	**silbe
*staff1	*
=1-	=1
*clefG2	*
*k[f#]	*
*M2/4	*
2r	.
=2	=2
2r	.
=3	=3
2r	.
=4	=4
2r	.
=5	=5
2r	.
=6	=6
2r	.
=7	=7
2r	.
=8	=8
2r	.
=9	=9
2r	.
=10	=10
2r	.
=11	=11
2r	.
=12	=12
4r	.
{8g	{In
8b	dem
=13	=13
8.ee	Mon-
16dd	-den
8cc	schein
8b	im
=14	=14
8.cc	Wal-
16b	-de
8a	sah
8g	ich
=15	=15
8a	ju2ngst
8f#	die
8g	El-
8e	-fen
=16	=16
[2b	rei-
=17	=17
2b]	|
=18	=18
4B}	-ten,}
4r	.
=19	=19
4r	.
{8B	ih-
8B	-re
=20	=20
8e	Ho2r-
8f#	-ner
8e	ho2rt�
8f#	ich
=21	=21
8g	kling-
8e	-en,
8B	ih-
8B	-re
=22	=22
8e	Glo2ck-
8f#	-lein
8e	ho2rt�
8f#	ich
=23	=23
4g	la2u-
8e	-ten,
8r	.
=24	=24
[2ee	la2u-
=25	=25
2ee]	|
=26	=26
4cc}	-ten;}
4r	.
=27	=27
{4.gg	{ih-
8ee	-re
=28	=28
4.cc	Ho2r-
8g	-ner
=29	=29
4.g#	ho2rt�
8cc	ich
=30	=30
4.g	klin-
8g}	-gen,}
=31	=31
{4.gg	ih-
8ee	-re
=32	=32
4.cc	Glo2ck-
8g	-lein
=33	=33
4.g#	ho2rt�
8cc	ich
=34	=34
4.g	la2u-
8g}	-ten,}
=35	=35
{4.g#	{ih-
8cc	-re
=36	=36
4.g	Glo2ck-
8cc	-lein,
=37	=37
4.g#	ih-
8cc	-re
=38	=38
8g	Glo2ck-
8r	.
8e	-lein
8r	.
=39	=39
8g	ho2rt�
8r	.
8a	ich
8r	.
=40	=40
[2b	la2u-
=41	=41
2b]	|
=42	=42
4e}	-ten.}
4r	.
=43	=43
2r	.
=44	=44
2r	.
=45	=45
2r	.
=46	=46
2r	.
=47	=47
2r	.
=48	=48
2r	.
=49	=49
4r	.
{8g	{Ih-
8b	-re
=50	=50
8.ee	wei-
16dd	-ssen
8cc	Ro2ss-
8b	-lein
=51	=51
8.cc	tru-
16b	-gen
8a	gold�
8g	nes
=52	=52
8a	Hirsch-
8f#	-ge
8g	weih�
8e	und
=53	=53
4.b	flo-
8e	-gen
=54	=54
4.b	rasch
8e	da-
=55	=55
[2b	-hin,
=56	=56
2b_	|
=57	=57
8b]}	|}
{8B	{wie
8e	wil-
8f#	-de
=58	=58
8g	Schwa2-
8f#	-ne
8e	kam
8B	es
=59	=59
8e	durch
8B	die
8e	Luft
8f#	ge-
=60	=60
4g	-zo-
8e	-gen,
8r	.
=61	=61
[2ee	rasch
=62	=62
2ee_	|
=63	=63
4ee]}	|}
8r	.
{8g	{wie
=64	=64
4.gg	wil-
8ee	-de
=65	=65
4.cc	Schwa2-
8g	-ne,
=66	=66
4.g#	kam
8cc	es
=67	=67
4.g	durch
8g	die
=68	=68
4.gg	Luft
8ee	ge-
=69	=69
4.cc	-zo-
8g}	-gen,}
=70	=70
{4.g#	rasch
8cc	wie
=71	=71
4.g	wil-
8g	-de
=72	=72
4.g#	Schwa2-
8cc	-ne
=73	=73
8g	kam
8f#	es
8e	durch
8f#	die
=74	=74
8g	Luft
8r	.
8a	ge-
8r	.
=75	=75
[2b	-zo-
=76	=76
2b]	|
=77	=77
4e}	-gen.}
4r	.
=78	=78
2r	.
=79	=79
2r	.
=80	=80
2r	.
=81	=81
2r	.
=82	=82
2r	.
=83	=83
2r	.
=84	=84
4r	.
{8g	{La2ch-
8b	-elnd
=85	=85
8.ee	nick-
16dd	-te
8cc	mir
8b	die
=86	=86
8.cc	Ko2n�
16b	gin,
8a	la2ch-
8g	-elnd
=87	=87
8a	im
8f#	Vor
8g	u2b-
8e	-er-
=88	=88
[2b	-rei-
=89	=89
2b]	|
=90	=90
4B}	-ten,}
4r	.
=91	=91
2r	.
=92	=92
{2b	{im
=93	=93
2cc	Vor-
=94	=94
2b	-u2-
=95	=95
2a	-ber-
=96	=96
[2g	-rei-
=97	=97
2g]	|
=98	=98
[2f	ten.
=99	=99
2f_	|
=100	=100
4f]}	|}
4r	.
=101	=101
2r	.
=102	=102
2r	.
=103	=103
2r	.
=104	=104
{[2e	Galt
=105	=105
4e]	|
4e	das
=106	=106
4e	mein-
4e	-er
=107	=107
4.fn	neu-
8fn	-en
=108	=108
2a	Lie-
=109	=109
4g#}	-be?}
4r	.
=110	=110
{4.e	{O-
8e	-der
=111	=111
[2a	soll
=112	=112
4a]	|
4a	es
=113	=113
[2a#	Tod
=114	=114
4a#]	|
4a#	be-
=115	=115
[2b	-deu-
=116	=116
2b_	|
=117	=117
2b]	|
=118	=118
[2b	-ten?
=119	=119
2b]}	|}
==	==
*-	*-
